X:289
T: BRUEDER HIER STEHT BIER STATT WEIN
N: F0508
O: Europa, Mitteleuropa, Deutschland
R: Studenten -, Trink - Lied, national
M: 4/4
L: 1/8
K: G
 | G3AB2B2 | AdcAG2z2 |
B3cedd2 | cBcdB2z2 |
G2g2g2fe | edd2B4 |
b3edgec | B2A2G2z2 |
G2g2g2fe | edd2B4 |
b3edgec | B2A2G2z2

@@@ Tune index: 5720
